X: 01034
T: DAVE FULLER'S REEL
C: Bob McQuillen Sept'74
B: Bob's Note Book 1 #34
R: reel
Z: 2019 John Chambers <jc:trillian.mit.edu>
M: C
L: 1/8
K: D
FG \
| A2d2 d2AG | FDEF D2FG | A2d2 edcd | A6 FG |\
| A2d2 d2de | fded BcdB | A2d2 cdec | d6   :|
|: de \
| f2d2 edcd | BdcB A2de | f2a2 gfed | e6 de |\
| f2d2 f2d2 | edcB A2de | f2g2 fedc | d6   :|
%%begintext align
%% With fondest best wishes
%% always to you, Dave.
%%endtext

%%sep 1 1 500

%%sep 1 1 500

